X: 2065
T: Astor Ticket
R: polka
M: 2/4
K: Gmajor
GB Ac|B2 d2|ec AF|G2 G2|
GB Ac|B2 d2|ec AF|G2 G2||
GB Ac|B2 dB|GB AF|GB D2|
GB Ac|B2 d2|ef ge|d2 d2||
ef ge|e2 dB|ce dc|c2 B2|
GB Ac|B2 d2|ec AF|G2 G2||
dc de|dB GB|dc AF|GB D2|
dc de|dB GB|dc AF|G2 G2||

